Icons and Attr/Resume/icon_30547.svg

<svg xmlns="http://www.w3.org/2000/svg" width="75" height="75" viewBox="0 0 75 75"><path d="M50.046 9.929h-33.192v55.247h42.546l.079-46.652-9.433-8.595zm7.337 53.385h-38.712v-51.289h30.396v8.315h8.315v42.974zm-13.207-41.366h-21.103v-1.258h21.103v1.258zm9.852 4.652h-30.955v-1.258h30.955v1.258zm-17.608 4.651h-13.347v-1.258h13.347v1.258zm17.608 4.652h-30.955v-1.258h30.955v1.258zm0 9.304h-30.955v-1.258h30.955v1.258zm0 4.651h-30.955v-1.258h30.955v1.258zm-8.245-9.303h-22.71v-1.258h22.71v1.258zm-9.538 13.956h-13.172v-1.258h13.172v1.258z"/></svg>

<svg xmlns="http://www.w3.org/2000/svg" xmlns:xlink="http://www.w3.org/1999/xlink" version="1.1" id="Layer_1" x="0px" y="0px" width="75px" height="75px" viewBox="0 0 75 75" enable-background="new 0 0 75 75" xml:space="preserve"> <path d="M50.046,9.929H16.854v55.247H59.4l0.079-46.652L50.046,9.929z M57.383,63.314H18.671V12.025h30.396v8.315h8.315V63.314z   M44.176,21.948H23.073V20.69h21.103V21.948z M54.028,26.6H23.073v-1.258h30.955V26.6z M36.42,31.251H23.073v-1.258H36.42V31.251z   M54.028,35.903H23.073v-1.258h30.955V35.903z M54.028,45.207H23.073v-1.258h30.955V45.207z M54.028,49.858H23.073v-1.258h30.955  V49.858z M45.783,40.555h-22.71v-1.258h22.71V40.555z M36.245,54.511H23.073v-1.258h13.172V54.511z"/> </svg>
